X: 8380
T: Courtown Harbour
R: jig
M: 6/8
K: Dmajor
E|:F2d BAF|FAF EDE|F (3ABc dcd|BAF EDE|
F2d BAF|FAF EDE|FED EDB,|DED D2E:|
|:FEF DFA|fdB AFE|DFA dcd|Bee ede|
fed edB|(3ABd B AFE|FED EDB,|1 DED D2e:|2 EFE D2D||

